src/svgs/career-guidance.svg

<svg width="40" height="31" viewBox="0 0 40 31" fill="none" xmlns="http://www.w3.org/2000/svg">
<path d="M34.5678 24.7984C35.6233 25.9311 35.6779 27.5959 35.6779 27.5959C35.6779 27.5959 34.0211 27.4242 32.9656 26.2916C31.91 25.1589 31.8555 23.4941 31.8555 23.4941C31.8555 23.4941 33.5123 23.6658 34.5678 24.7984Z" fill="#6C63FF"/>
<path d="M37.8892 26.5659C36.7566 27.6214 35.0918 27.6759 35.0918 27.6759C35.0918 27.6759 35.2634 26.0191 36.3961 24.9636C37.5288 23.9081 39.1935 23.8535 39.1935 23.8535C39.1935 23.8535 39.0219 25.5103 37.8892 26.5659Z" fill="#6C63FF"/>
<path d="M37.6085 29.9276H33.4425C33.3626 29.9276 33.2843 29.9051 33.2165 29.8628C33.1488 29.8204 33.0943 29.7598 33.0593 29.6879L32.1523 27.8234C32.1207 27.7585 32.1061 27.6866 32.11 27.6144C32.1138 27.5423 32.1359 27.4723 32.1742 27.4111C32.2126 27.3498 32.2658 27.2993 32.329 27.2643C32.3922 27.2293 32.4632 27.2109 32.5355 27.2109H38.5155C38.5878 27.2109 38.6588 27.2293 38.722 27.2643C38.7852 27.2993 38.8385 27.3498 38.8768 27.4111C38.9151 27.4723 38.9372 27.5423 38.941 27.6144C38.9449 27.6866 38.9303 27.7585 38.8987 27.8234L37.9917 29.6879C37.9567 29.7598 37.9023 29.8204 37.8345 29.8628C37.7667 29.9051 37.6884 29.9276 37.6085 29.9276V29.9276Z" fill="#3F3D56"/>
<path d="M20.7286 12.0196C21.6767 12.0196 22.4454 11.251 22.4454 10.3028C22.4454 9.35459 21.6767 8.58594 20.7286 8.58594C19.7804 8.58594 19.0117 9.35459 19.0117 10.3028C19.0117 11.251 19.7804 12.0196 20.7286 12.0196Z" fill="#2F2E41"/>
<path d="M21.2076 8.63338C21.5047 8.63342 21.7967 8.71056 22.0551 8.85725C22.3135 9.00395 22.5294 9.21518 22.6817 9.4703C22.834 9.72542 22.9175 10.0157 22.924 10.3127C22.9305 10.6098 22.8598 10.9034 22.7189 11.165C22.8677 10.9788 22.9762 10.7636 23.0372 10.5331C23.0983 10.3027 23.1107 10.062 23.0737 9.82654C23.0366 9.59103 22.9509 9.36583 22.822 9.16529C22.6931 8.96474 22.5238 8.79324 22.3249 8.66173C22.1261 8.53022 21.902 8.44158 21.667 8.40145C21.432 8.36131 21.1912 8.37058 20.96 8.42865C20.7288 8.48672 20.5122 8.59232 20.3241 8.73873C20.1359 8.88513 19.9803 9.06912 19.8672 9.27898C20.0277 9.0775 20.2315 8.91481 20.4636 8.80303C20.6957 8.69125 20.95 8.63326 21.2076 8.63338V8.63338Z" fill="#2F2E41"/>
<path d="M17.5198 10.2993C20.305 10.2993 22.563 8.04137 22.563 5.25609C22.563 2.47081 20.305 0.212891 17.5198 0.212891C14.7345 0.212891 12.4766 2.47081 12.4766 5.25609C12.4766 8.04137 14.7345 10.2993 17.5198 10.2993Z" fill="#2F2E41"/>
<path d="M13.5628 2.12669C14.4318 1.1494 15.6465 0.547954 16.9505 0.449293C18.2545 0.350633 19.5459 0.762474 20.552 1.5979C20.5108 1.5587 20.47 1.51918 20.4271 1.48108C19.4275 0.592416 18.1158 0.137254 16.7805 0.215726C15.4453 0.294198 14.1959 0.899876 13.3073 1.89952C12.4186 2.89916 11.9634 4.21088 12.0419 5.54612C12.1204 6.88135 12.726 8.13073 13.7257 9.01939C13.7685 9.05749 13.8126 9.09338 13.8563 9.12975C12.9088 8.2284 12.3485 6.99417 12.2938 5.68756C12.239 4.38095 12.694 3.10417 13.5628 2.12669V2.12669Z" fill="#2F2E41"/>
<path d="M17.4767 10.2561C19.2706 10.2561 20.7248 8.80184 20.7248 7.00793C20.7248 5.21402 19.2706 3.75977 17.4767 3.75977C15.6828 3.75977 14.2285 5.21402 14.2285 7.00793C14.2285 8.80184 15.6828 10.2561 17.4767 10.2561Z" fill="#A0616A"/>
<path d="M15.1693 8.0332C15.1693 8.0332 15.5967 11.9652 14.9129 12.3926C14.229 12.82 18.8448 13.4183 18.8448 13.4183C18.8448 13.4183 18.161 9.14442 19.8706 8.03321L15.1693 8.0332Z" fill="#A0616A"/>
<path d="M19.2732 11.7099C19.2732 11.7099 20.546 11.1156 18.7129 11.3273C16.8798 11.539 15.2983 10.7269 15.2983 10.7269C15.2983 10.7269 14.7429 10.1713 14.6574 10.7697C14.5719 11.368 14.9138 12.4792 13.0333 12.6502C11.1528 12.8211 9.44324 12.3083 8.75942 13.5904C8.0756 14.8726 8.41751 20.4287 8.41751 20.4287C8.41751 20.4287 9.69968 25.0445 10.7254 25.7283C11.7511 26.4121 20.7263 25.4719 20.7263 25.4719L23.2907 20.8561V15.471C23.2907 15.471 22.9488 13.5904 20.5554 14.1033C20.5554 14.1033 19.0168 13.7614 19.1022 12.9921C19.1877 12.2228 19.2732 11.7099 19.2732 11.7099Z" fill="#D0CDE1"/>
<path d="M11.0638 28.9951C11.1166 28.7649 11.152 28.6347 11.152 28.6347L11.1246 28.4474L10.843 26.5351L10.7246 25.7285C11.7501 25.3011 12.0067 23.335 12.0067 23.335L12.0454 23.3119L12.2204 23.2072V23.2067L12.8487 22.8298L12.8615 22.8223L13.1153 22.9911L13.6308 23.335C14.3068 23.8394 15.0805 24.1972 15.9026 24.3855C16.7246 24.5739 17.5769 24.5887 18.405 24.4289C18.7905 24.3629 19.1674 24.254 19.5287 24.1044L20.7721 23.6897L20.8108 23.677L20.849 23.6827L21.5782 23.793L21.5915 23.7954L21.6518 23.8044L21.483 24.9719L21.2381 26.6686C21.8849 27.0111 22.4599 27.6545 22.9627 28.4474C23.074 28.6229 23.1819 28.8055 23.2863 28.9951C23.4222 29.2404 23.5519 29.4956 23.6755 29.7569C23.6906 29.788 23.7052 29.8197 23.7198 29.8513C23.7675 29.9536 23.8146 30.0569 23.8604 30.1607H10.8373C10.8543 30.0564 10.8713 29.9569 10.8878 29.8612C10.8887 29.8579 10.8893 29.8546 10.8897 29.8513C10.8958 29.8192 10.9015 29.788 10.9067 29.7569C10.9642 29.4456 11.0199 29.1857 11.0638 28.9951Z" fill="#2F2E41"/>
<path d="M10.5547 12.5639C10.5547 12.5639 11.4949 14.2734 11.153 16.4104C10.8111 18.5473 12.1788 23.847 12.1788 23.847L13.2045 23.5905C13.2045 23.5905 12.5207 19.1457 12.6916 18.1199C12.8626 17.0942 12.8626 13.0767 12.0078 12.5639C11.153 12.051 10.5547 12.5639 10.5547 12.5639Z" fill="#2F2E41"/>
<path d="M20.4948 14.3401L20.8541 23.8039L21.5379 24.2313C21.5379 24.2313 22.5209 13.8457 22.008 13.8457H20.9645C20.9007 13.8457 20.8375 13.8587 20.7789 13.8838C20.7203 13.909 20.6674 13.9458 20.6235 13.9921C20.5795 14.0383 20.5455 14.093 20.5233 14.1529C20.5012 14.2127 20.4915 14.2764 20.4948 14.3401V14.3401Z" fill="#2F2E41"/>
<path d="M12.6481 23.6341C12.8841 23.6341 13.0755 23.4427 13.0755 23.2067C13.0755 22.9706 12.8841 22.7793 12.6481 22.7793C12.4121 22.7793 12.2207 22.9706 12.2207 23.2067C12.2207 23.4427 12.4121 23.6341 12.6481 23.6341Z" fill="#6C63FF"/>
<path d="M21.195 24.0618C21.431 24.0618 21.6224 23.8705 21.6224 23.6344C21.6224 23.3984 21.431 23.207 21.195 23.207C20.9589 23.207 20.7676 23.3984 20.7676 23.6344C20.7676 23.8705 20.9589 24.0618 21.195 24.0618Z" fill="#6C63FF"/>
<path d="M14.6992 2.94727V6.19545H15.4514L16.4087 5.16973L16.2805 6.19545H19.6057L19.4005 5.16973L19.8108 6.19545H20.3407V2.94727H14.6992Z" fill="#2F2E41"/>
<path d="M14.1861 6.79377C14.3277 6.79377 14.4426 6.58329 14.4426 6.32364C14.4426 6.064 14.3277 5.85352 14.1861 5.85352C14.0445 5.85352 13.9297 6.064 13.9297 6.32364C13.9297 6.58329 14.0445 6.79377 14.1861 6.79377Z" fill="#A0616A"/>
<path d="M20.7682 6.79377C20.9098 6.79377 21.0246 6.58329 21.0246 6.32364C21.0246 6.064 20.9098 5.85352 20.7682 5.85352C20.6265 5.85352 20.5117 6.064 20.5117 6.32364C20.5117 6.58329 20.6265 6.79377 20.7682 6.79377Z" fill="#A0616A"/>
<path d="M22.5213 23.5918C22.5213 23.5918 18.6321 22.8652 18.3756 24.1474C18.1192 25.4295 22.6923 24.8739 22.6923 24.8739L22.5213 23.5918Z" fill="#A0616A"/>
<path d="M22.4343 14.7871C22.4343 14.7871 31.7514 22.2237 30.0418 24.0187C28.3323 25.8138 21.8359 25.3009 21.8359 25.3009L22.2633 23.1639L26.0244 22.7366L24.1438 20.856L22.4343 21.027V14.7871Z" fill="#D0CDE1"/>
<path d="M8.67383 27.1811L9.87052 28.1213C9.87052 28.1213 10.7253 30.7711 12.0075 30.0018C13.2896 29.2325 10.8108 26.4972 10.8108 26.4972L9.35765 25.9844L8.67383 27.1811Z" fill="#A0616A"/>
<path d="M9.8699 13.4199L8.67643 13.7791C8.67643 13.7791 0.381847 19.9162 0.0399353 21.6258C-0.301977 23.3354 1.66402 24.2756 1.66402 24.2756L9.1006 27.7802L9.8699 25.7287L6.3653 23.9337C6.3653 23.9337 6.62174 23.4208 5.596 23.3354C4.57027 23.2499 4.39931 22.1387 4.39931 22.1387C4.39931 22.1387 6.45078 18.976 7.56199 19.6598C8.67321 20.3436 9.01512 20.8565 9.01512 20.8565L9.8699 13.4199Z" fill="#D0CDE1"/>
<path d="M26.8919 29.2876V29.5739C26.8921 29.6525 26.8775 29.7304 26.849 29.8036C26.8363 29.8363 26.821 29.8678 26.8032 29.898C26.747 29.9923 26.6672 30.0705 26.5717 30.1247C26.4762 30.179 26.3682 30.2075 26.2584 30.2074H5.19406C5.08422 30.2075 4.97625 30.179 4.88074 30.1247C4.78522 30.0705 4.70545 29.9923 4.64923 29.898C4.63145 29.8678 4.61614 29.8363 4.60347 29.8036C4.57495 29.7304 4.56039 29.6525 4.56055 29.5739V29.2876C4.56053 29.2044 4.5769 29.122 4.60873 29.0451C4.64055 28.9682 4.68722 28.8984 4.74605 28.8396C4.80488 28.7807 4.87473 28.7341 4.9516 28.7022C5.02847 28.6704 5.11086 28.654 5.19406 28.6541H6.40825V28.5206C6.40824 28.5171 6.40892 28.5136 6.41025 28.5104C6.41157 28.5072 6.41352 28.5043 6.41597 28.5019C6.41842 28.4994 6.42134 28.4975 6.42455 28.4961C6.42775 28.4948 6.43119 28.4941 6.43466 28.4941H7.06817C7.07164 28.4941 7.07508 28.4948 7.07829 28.4961C7.0815 28.4975 7.08441 28.4994 7.08686 28.5019C7.08932 28.5043 7.09126 28.5072 7.09259 28.5104C7.09391 28.5136 7.09459 28.5171 7.09459 28.5206V28.6541H7.49036V28.5206C7.49035 28.5171 7.49103 28.5136 7.49235 28.5104C7.49368 28.5072 7.49563 28.5043 7.49808 28.5019C7.50053 28.4994 7.50345 28.4975 7.50666 28.4961C7.50986 28.4948 7.5133 28.4941 7.51677 28.4941H8.15028C8.15375 28.4941 8.15719 28.4948 8.1604 28.4961C8.1636 28.4975 8.16652 28.4994 8.16897 28.5019C8.17143 28.5043 8.17337 28.5072 8.1747 28.5104C8.17602 28.5136 8.1767 28.5171 8.1767 28.5206V28.6541H8.57294V28.5206C8.57293 28.5171 8.57361 28.5136 8.57494 28.5104C8.57626 28.5072 8.57821 28.5043 8.58066 28.5019C8.58312 28.4994 8.58603 28.4975 8.58924 28.4961C8.59245 28.4948 8.59588 28.4941 8.59936 28.4941H9.23287C9.23634 28.4941 9.23977 28.4948 9.24298 28.4961C9.24619 28.4975 9.2491 28.4994 9.25156 28.5019C9.25401 28.5043 9.25596 28.5072 9.25728 28.5104C9.25861 28.5136 9.25929 28.5171 9.25928 28.5206V28.6541H9.65505V28.5206C9.65504 28.5171 9.65572 28.5136 9.65705 28.5104C9.65837 28.5072 9.66032 28.5043 9.66277 28.5019C9.66523 28.4994 9.66814 28.4975 9.67135 28.4961C9.67456 28.4948 9.67799 28.4941 9.68146 28.4941H10.315C10.3184 28.4941 10.3219 28.4948 10.3251 28.4961C10.3283 28.4975 10.3312 28.4994 10.3337 28.5019C10.3361 28.5043 10.3381 28.5072 10.3394 28.5104C10.3407 28.5136 10.3414 28.5171 10.3414 28.5206V28.6541H10.7372V28.5206C10.7372 28.5171 10.7378 28.5136 10.7392 28.5104C10.7405 28.5072 10.7424 28.5043 10.7449 28.5019C10.7473 28.4994 10.7502 28.4975 10.7535 28.4961C10.7567 28.4948 10.7601 28.4941 10.7636 28.4941H11.3971C11.4006 28.4941 11.404 28.4948 11.4072 28.4961C11.4104 28.4975 11.4133 28.4994 11.4158 28.5019C11.4182 28.5043 11.4202 28.5072 11.4215 28.5104C11.4228 28.5136 11.4235 28.5171 11.4235 28.5206V28.6541H11.8197V28.5206C11.8197 28.5171 11.8204 28.5136 11.8217 28.5104C11.8231 28.5072 11.825 28.5043 11.8275 28.5019C11.8299 28.4994 11.8328 28.4975 11.836 28.4961C11.8392 28.4948 11.8427 28.4941 11.8461 28.4941H12.4797C12.4831 28.4941 12.4866 28.4948 12.4898 28.4961C12.493 28.4975 12.4959 28.4994 12.4984 28.5019C12.5008 28.5043 12.5028 28.5072 12.5041 28.5104C12.5054 28.5136 12.5061 28.5171 12.5061 28.5206V28.6541H12.9018V28.5206C12.9018 28.5171 12.9025 28.5136 12.9038 28.5104C12.9052 28.5072 12.9071 28.5043 12.9096 28.5019C12.912 28.4994 12.9149 28.4975 12.9181 28.4961C12.9214 28.4948 12.9248 28.4941 12.9283 28.4941H17.8907C17.8942 28.4941 17.8976 28.4948 17.9008 28.4961C17.904 28.4975 17.9069 28.4994 17.9094 28.5019C17.9118 28.5043 17.9138 28.5072 17.9151 28.5104C17.9164 28.5136 17.9171 28.5171 17.9171 28.5206V28.6541H18.3133V28.5206C18.3133 28.5171 18.314 28.5136 18.3153 28.5104C18.3167 28.5072 18.3186 28.5043 18.3211 28.5019C18.3235 28.4994 18.3264 28.4975 18.3296 28.4961C18.3328 28.4948 18.3363 28.4941 18.3397 28.4941H18.9733C18.9802 28.4942 18.9869 28.497 18.9919 28.502C18.9968 28.5069 18.9996 28.5136 18.9997 28.5206V28.6541H19.3954V28.5206C19.3954 28.5171 19.3961 28.5136 19.3974 28.5104C19.3988 28.5072 19.4007 28.5043 19.4032 28.5019C19.4056 28.4994 19.4085 28.4975 19.4117 28.4961C19.415 28.4948 19.4184 28.4941 19.4219 28.4941H20.0554C20.0588 28.4941 20.0623 28.4948 20.0655 28.4961C20.0687 28.4975 20.0716 28.4994 20.0741 28.5019C20.0765 28.5043 20.0785 28.5072 20.0798 28.5104C20.0811 28.5136 20.0818 28.5171 20.0818 28.5206V28.6541H20.4775V28.5206C20.4775 28.5171 20.4782 28.5136 20.4795 28.5104C20.4809 28.5072 20.4828 28.5043 20.4853 28.5019C20.4877 28.4994 20.4906 28.4975 20.4939 28.4961C20.4971 28.4948 20.5005 28.4941 20.504 28.4941H21.1375C21.1409 28.4941 21.1444 28.4948 21.1476 28.4961C21.1508 28.4975 21.1537 28.4994 21.1562 28.5019C21.1586 28.5043 21.1606 28.5072 21.1619 28.5104C21.1632 28.5136 21.1639 28.5171 21.1639 28.5206V28.6541H21.5601V28.5206C21.5601 28.5171 21.5608 28.5136 21.5621 28.5104C21.5635 28.5072 21.5654 28.5043 21.5679 28.5019C21.5703 28.4994 21.5732 28.4975 21.5764 28.4961C21.5796 28.4948 21.5831 28.4941 21.5865 28.4941H22.2201C22.227 28.4942 22.2336 28.4971 22.2385 28.502C22.2433 28.5069 22.246 28.5136 22.246 28.5206V28.6541H22.6422V28.5206C22.6422 28.5171 22.6429 28.5136 22.6442 28.5104C22.6456 28.5072 22.6475 28.5043 22.65 28.5019C22.6524 28.4994 22.6553 28.4975 22.6585 28.4961C22.6617 28.4948 22.6652 28.4941 22.6687 28.4941H23.3022C23.3056 28.4941 23.3091 28.4948 23.3123 28.4961C23.3155 28.4975 23.3184 28.4994 23.3209 28.5019C23.3233 28.5043 23.3253 28.5072 23.3266 28.5104C23.3279 28.5136 23.3286 28.5171 23.3286 28.5206V28.6541H23.7244V28.5206C23.7243 28.5171 23.725 28.5136 23.7263 28.5104C23.7277 28.5072 23.7296 28.5043 23.7321 28.5019C23.7345 28.4994 23.7374 28.4975 23.7407 28.4961C23.7439 28.4948 23.7473 28.4941 23.7508 28.4941H24.3843C24.3877 28.4941 24.3912 28.4948 24.3944 28.4961C24.3976 28.4975 24.4005 28.4994 24.403 28.5019C24.4054 28.5043 24.4074 28.5072 24.4087 28.5104C24.41 28.5136 24.4107 28.5171 24.4107 28.5206V28.6541H26.2584C26.3416 28.654 26.424 28.6704 26.5009 28.7022C26.5777 28.7341 26.6476 28.7807 26.7064 28.8396C26.7652 28.8984 26.8119 28.9682 26.8437 29.0451C26.8755 29.122 26.8919 29.2044 26.8919 29.2876V29.2876Z" fill="#3F3D56"/>
<path d="M25.1953 17.2282H17.344V17.0664H13.7839V17.2282H5.90022C5.75937 17.2282 5.62429 17.2842 5.52469 17.3838C5.42509 17.4834 5.36914 17.6185 5.36914 17.7593V28.5102C5.36914 28.651 5.42509 28.7861 5.52469 28.8857C5.62429 28.9853 5.75937 29.0413 5.90022 29.0413H25.1953C25.3362 29.0413 25.4713 28.9853 25.5709 28.8857C25.6705 28.7861 25.7264 28.651 25.7264 28.5102V17.7593C25.7264 17.6185 25.6705 17.4834 25.5709 17.3838C25.4713 17.2842 25.3362 17.2282 25.1953 17.2282V17.2282Z" fill="#3F3D56"/>
<path d="M15.564 22.1613C16.2153 22.1613 16.7433 21.6333 16.7433 20.982C16.7433 20.3307 16.2153 19.8027 15.564 19.8027C14.9127 19.8027 14.3848 20.3307 14.3848 20.982C14.3848 21.6333 14.9127 22.1613 15.564 22.1613Z" stroke="#D0CDE1" stroke-width="2" stroke-miterlimit="10"/>
<path d="M15.1871 22.5851C15.8384 22.5851 16.3664 22.0571 16.3664 21.4058C16.3664 20.7545 15.8384 20.2266 15.1871 20.2266C14.5358 20.2266 14.0078 20.7545 14.0078 21.4058C14.0078 22.0571 14.5358 22.5851 15.1871 22.5851Z" fill="#D0CDE1"/>
</svg>

<svg width="40" height="31" fill="none" xmlns="http://www.w3.org/2000/svg"><path d="M34.568 24.798c1.055 1.133 1.11 2.798 1.11 2.798s-1.657-.172-2.712-1.304c-1.056-1.133-1.11-2.798-1.11-2.798s1.656.172 2.712 1.304Z" fill="#6C63FF"/><path d="M37.89 26.566c-1.133 1.055-2.798 1.11-2.798 1.11s.171-1.657 1.304-2.712c1.133-1.056 2.797-1.11 2.797-1.11s-.171 1.656-1.304 2.712Z" fill="#6C63FF"/><path d="M37.608 29.928h-4.165a.427.427 0 0 1-.384-.24l-.907-1.865a.425.425 0 0 1 .383-.612h5.98a.426.426 0 0 1 .384.612l-.907 1.865a.426.426 0 0 1-.383.24Z" fill="#3F3D56"/><path d="M20.729 12.02a1.717 1.717 0 1 0 0-3.434 1.717 1.717 0 0 0 0 3.434Z" fill="#2F2E41"/><path d="M21.208 8.633a1.717 1.717 0 0 1 1.51 2.532 1.715 1.715 0 1 0-2.85-1.886 1.712 1.712 0 0 1 1.34-.646Z" fill="#2F2E41"/><path d="M17.52 10.3a5.043 5.043 0 1 0 0-10.087 5.043 5.043 0 0 0 0 10.086Z" fill="#2F2E41"/><path d="M13.563 2.127a5.042 5.042 0 0 1 6.989-.53c-.041-.038-.082-.078-.125-.116a5.043 5.043 0 1 0-6.701 7.538c.042.038.087.074.13.11a5.042 5.042 0 0 1-.293-7.002Z" fill="#2F2E41"/><path d="M17.477 10.256a3.248 3.248 0 1 0 0-6.496 3.248 3.248 0 0 0 0 6.496Z" fill="#A0616A"/><path d="M15.17 8.033s.427 3.932-.257 4.36c-.684.427 3.932 1.025 3.932 1.025s-.684-4.274 1.026-5.385h-4.702Z" fill="#A0616A"/><path d="M19.273 11.71s1.273-.594-.56-.383c-1.833.212-3.415-.6-3.415-.6s-.555-.556-.64.043c-.086.598.256 1.71-1.625 1.88-1.88.171-3.59-.342-4.274.94-.683 1.283-.341 6.839-.341 6.839s1.282 4.616 2.307 5.3c1.026.683 10.001-.257 10.001-.257l2.565-4.616v-5.385s-.342-1.88-2.736-1.368c0 0-1.538-.342-1.453-1.11.086-.77.171-1.283.171-1.283Z" fill="#D0CDE1"/><path d="M11.064 28.995c.053-.23.088-.36.088-.36l-.027-.188-.282-1.912-.118-.806c1.025-.428 1.282-2.394 1.282-2.394l.038-.023.175-.105.629-.377.012-.008.254.17.516.343a6.062 6.062 0 0 0 4.774 1.094 5.256 5.256 0 0 0 1.124-.325l1.243-.414.039-.013.038.006.73.11.012.002.06.01-.168 1.167-.245 1.697c.647.342 1.222.985 1.725 1.778.111.176.219.358.323.548.136.245.266.5.39.762l.044.094c.047.103.095.206.14.31H10.837a32.808 32.808 0 0 1 .07-.404c.057-.311.113-.571.157-.762Z" fill="#2F2E41"/><path d="M10.555 12.564s.94 1.71.598 3.846c-.342 2.137 1.026 7.437 1.026 7.437l1.025-.257s-.683-4.444-.512-5.47c.17-1.026.17-5.043-.684-5.556-.855-.513-1.453 0-1.453 0ZM20.495 14.34l.36 9.464.683.427s.983-10.385.47-10.385h-1.043a.472.472 0 0 0-.47.494Z" fill="#2F2E41"/><path d="M12.648 23.634a.427.427 0 1 0 0-.855.427.427 0 0 0 0 .855ZM21.195 24.062a.427.427 0 1 0 0-.855.427.427 0 0 0 0 .855Z" fill="#6C63FF"/><path d="M14.7 2.947v3.248h.751l.958-1.025-.128 1.025h3.325L19.4 5.17l.41 1.025h.53V2.947H14.7Z" fill="#2F2E41"/><path d="M14.186 6.794c.142 0 .257-.21.257-.47s-.115-.47-.257-.47c-.142 0-.256.21-.256.47s.114.47.256.47ZM20.768 6.794c.142 0 .257-.21.257-.47s-.115-.47-.257-.47c-.142 0-.256.21-.256.47s.114.47.256.47ZM22.521 23.592s-3.889-.727-4.145.555c-.257 1.283 4.316.727 4.316.727l-.17-1.282Z" fill="#A0616A"/><path d="M22.434 14.787s9.317 7.437 7.608 9.232c-1.71 1.795-8.206 1.282-8.206 1.282l.427-2.137 3.761-.427-1.88-1.881-1.71.171v-6.24Z" fill="#D0CDE1"/><path d="m8.674 27.181 1.197.94s.854 2.65 2.136 1.88c1.283-.768-1.196-3.504-1.196-3.504l-1.453-.513-.684 1.197Z" fill="#A0616A"/><path d="m9.87 13.42-1.194.36S.382 19.915.04 21.625c-.342 1.71 1.624 2.65 1.624 2.65l7.437 3.504.769-2.051-3.505-1.795s.257-.513-.769-.599C4.57 23.25 4.399 22.14 4.399 22.14s2.052-3.163 3.163-2.48c1.111.685 1.453 1.198 1.453 1.198l.855-7.437Z" fill="#D0CDE1"/><path d="M26.892 29.288v.286a.629.629 0 0 1-.32.55.633.633 0 0 1-.314.083H5.194a.633.633 0 0 1-.633-.633v-.286a.634.634 0 0 1 .633-.634h1.214v-.133a.026.026 0 0 1 .027-.027h.633c.004 0 .007 0 .01.002a.027.027 0 0 1 .017.025v.133h.395v-.133a.027.027 0 0 1 .008-.02.027.027 0 0 1 .019-.008h.633l.01.003a.027.027 0 0 1 .015.014.027.027 0 0 1 .002.01v.134h.396v-.133a.026.026 0 0 1 .026-.027h.634c.003 0 .007 0 .01.002a.027.027 0 0 1 .014.014.026.026 0 0 1 .002.01v.134h.396v-.133a.026.026 0 0 1 .026-.027h.634c.003 0 .007 0 .01.002a.028.028 0 0 1 .014.014.027.027 0 0 1 .002.01v.134h.396v-.133a.025.025 0 0 1 .008-.02.026.026 0 0 1 .019-.007h.633a.027.027 0 0 1 .019.008.026.026 0 0 1 .008.019v.133h.396v-.133c0-.004 0-.007.002-.01a.026.026 0 0 1 .006-.01.026.026 0 0 1 .018-.007h.634c.003 0 .007 0 .01.002a.028.028 0 0 1 .014.014.027.027 0 0 1 .002.01v.134h.396v-.133c0-.004 0-.007.002-.01a.026.026 0 0 1 .006-.01.026.026 0 0 1 .018-.007h4.963a.027.027 0 0 1 .018.008.026.026 0 0 1 .008.019v.133h.396v-.133l.002-.01a.026.026 0 0 1 .006-.01.026.026 0 0 1 .019-.007h.633a.027.027 0 0 1 .027.027v.133h.395v-.133l.002-.01a.026.026 0 0 1 .006-.01.026.026 0 0 1 .019-.007h.633c.004 0 .007 0 .01.002a.028.028 0 0 1 .015.014.027.027 0 0 1 .002.01v.134h.395v-.133c0-.004.001-.007.003-.01a.026.026 0 0 1 .005-.01.026.026 0 0 1 .019-.007h.633c.004 0 .007 0 .01.002a.028.028 0 0 1 .015.014.027.027 0 0 1 .002.01v.134h.396v-.133c0-.004 0-.007.002-.01a.026.026 0 0 1 .006-.01.026.026 0 0 1 .018-.007h.634c.007 0 .014.003.018.008a.027.027 0 0 1 .008.019v.133h.396v-.133c0-.004 0-.007.002-.01a.026.026 0 0 1 .006-.01.026.026 0 0 1 .019-.007h.633c.004 0 .007 0 .01.002a.028.028 0 0 1 .015.014.027.027 0 0 1 .002.01v.134h.395v-.133a.025.025 0 0 1 .008-.02.026.026 0 0 1 .019-.007h.633c.004 0 .007 0 .01.002a.028.028 0 0 1 .015.014.027.027 0 0 1 .002.01v.134h1.847a.633.633 0 0 1 .634.634Z" fill="#3F3D56"/><path d="M25.195 17.228h-7.851v-.162h-3.56v.162H5.9a.531.531 0 0 0-.53.531V28.51a.531.531 0 0 0 .53.531h19.295a.531.531 0 0 0 .531-.53V17.758a.531.531 0 0 0-.53-.53Z" fill="#3F3D56"/><path d="M15.564 22.161a1.18 1.18 0 1 0 0-2.358 1.18 1.18 0 0 0 0 2.358Z" stroke="#D0CDE1" stroke-width="2" stroke-miterlimit="10"/><path d="M15.187 22.585a1.18 1.18 0 1 0 0-2.359 1.18 1.18 0 0 0 0 2.36Z" fill="#D0CDE1"/></svg>
